<?xml version="1.0" encoding="UTF-8"?>
<map version="1.10" tiledversion="1.11.2" orientation="orthogonal" renderorder="right-down" width="25" height="7" tilewidth="32" tileheight="32" infinite="0" nextlayerid="3" nextobjectid="16">
 <tileset firstgid="1" source="village1.tsx"/>
 <tileset firstgid="99" source="village2.tsx"/>
 <tileset firstgid="183" source="Cereals.tsx"/>
 <layer id="1" name="Tile Layer 1" width="25" height="7">
  <data encoding="csv">
1,2,3,4,5,6,7,8,9,10,11,12,13,14,100,101,102,103,104,105,106,107,108,109,110,
15,16,17,18,19,20,21,22,23,24,25,26,27,28,112,113,114,115,116,117,118,119,120,121,122,
29,30,31,32,33,34,35,36,37,38,39,40,41,42,124,125,126,127,128,129,130,131,132,133,134,
43,44,45,46,47,48,49,50,51,52,53,54,55,56,136,137,138,139,140,141,142,143,144,145,146,
57,58,59,60,61,62,63,64,65,66,67,68,69,70,148,149,150,151,152,153,154,155,156,157,158,
71,72,73,74,75,76,77,78,79,80,81,82,83,84,160,161,162,163,164,165,166,167,168,169,170,
85,86,87,88,89,90,91,92,93,94,95,96,97,98,172,173,174,175,176,177,178,179,180,181,182
</data>
 </layer>
 <objectgroup id="2" name="interactables">
  <object id="1" type="Food" gid="183" x="223.69" y="212.054" width="32" height="32"/>
  <object id="2" type="Food" gid="183" x="481.204" y="135.231" width="32" height="32"/>
  <object id="3" type="Food" gid="183" x="609.038" y="84.2195" width="32" height="32"/>
  <object id="4" type="Poison" gid="196" x="446.787" y="137.074" width="32" height="32"/>
  <object id="5" type="Poison" gid="196" x="192.961" y="208.367" width="32" height="32"/>
  <object id="7" type="Poison" gid="196" x="271.628" y="208.367" width="32" height="32"/>
  <object id="8" type="Poison" gid="196" x="528.527" y="210.825" width="32" height="32"/>
  <object id="9" type="finish" x="756.785" y="168.646" width="20.8768" height="33.5986"/>
  <object id="10" x="813.218" y="187.239"/>
 </objectgroup>
</map>
