<?xml version="1.0" encoding="UTF-8"?>
<map version="1.10" tiledversion="1.11.2" orientation="orthogonal" renderorder="right-down" width="25" height="7" tilewidth="32" tileheight="32" infinite="0" nextlayerid="2" nextobjectid="1">
 <tileset firstgid="1" source="newMarket.tsx"/>
 <tileset firstgid="225" source="market2.tsx"/>
 <layer id="1" name="Tile Layer 1" width="25" height="7">
  <data encoding="csv">
1,2,3,4,5,6,7,8,9,10,11,12,13,14,226,227,228,229,230,231,232,233,234,235,236,
15,16,17,18,19,20,21,22,23,24,25,26,27,28,238,239,240,241,242,243,244,245,246,247,248,
29,30,31,32,33,34,35,36,37,38,39,40,41,42,250,251,252,253,254,255,256,257,258,259,260,
43,44,45,46,47,48,49,50,51,52,53,54,55,56,262,263,264,265,266,267,268,269,270,271,272,
57,58,59,60,61,62,63,64,65,66,67,68,69,70,274,275,276,277,278,279,280,281,282,283,284,
71,72,73,74,75,76,77,78,79,80,81,82,83,84,286,287,288,289,290,291,292,293,294,295,296,
85,86,87,88,89,90,91,92,93,94,95,96,97,98,298,299,300,301,302,303,304,305,306,307,308
</data>
 </layer>
</map>
