<?xml version="1.0" encoding="UTF-8"?>
<map version="1.10" tiledversion="1.11.2" orientation="orthogonal" renderorder="right-down" width="18" height="7" tilewidth="32" tileheight="32" infinite="0" nextlayerid="4" nextobjectid="16">
 <tileset firstgid="1" source="../Landscape.tsx"/>
 <tileset firstgid="225" source="Cereals.tsx"/>
 <layer id="1" name="Tile Layer 1" width="18" height="7">
  <data encoding="csv">
127,128,129,130,131,132,133,134,135,136,137,138,139,140,133,134,127,128,
141,142,143,144,145,146,147,148,149,150,151,152,153,146,147,148,141,142,
155,156,157,158,159,160,161,162,163,164,165,166,167,168,161,162,155,156,
169,170,171,172,173,174,175,176,177,178,179,180,181,182,176,182,169,170,
183,184,185,186,187,188,189,190,191,192,193,194,195,196,190,196,183,184,
197,198,199,200,101,101,203,204,210,204,207,208,209,210,204,210,197,198,
211,212,213,214,215,216,217,218,219,220,221,222,223,224,219,218,211,212
</data>
 </layer>
 <layer id="3" name="interactables" width="18" height="7" visible="0">
  <data encoding="csv">
0,0,0,0,0,0,0,0,0,0,0,0,0,0,0,0,0,0,
0,0,0,0,0,0,0,0,0,0,0,0,0,0,0,0,0,0,
0,0,0,0,0,0,0,0,0,0,0,0,0,0,0,0,0,0,
0,0,0,0,0,0,0,0,0,0,0,225,0,0,0,0,0,0,
0,0,0,0,0,0,0,0,0,0,0,0,0,0,0,0,0,0,
0,0,0,0,0,0,0,0,0,0,0,0,0,0,0,225,0,0,
0,0,0,0,0,0,0,0,0,0,0,0,0,0,0,0,0,0
</data>
 </layer>
 <objectgroup id="2" name="foods">
  <object id="13" type="Food" gid="225" x="480.129" y="190.546" width="32" height="32">
   <properties>
    <property name="iseaten" type="bool" value="false"/>
   </properties>
  </object>
  <object id="14" type="Food" gid="225" x="352.08" y="128.712" width="32" height="32">
   <properties>
    <property name="iseaten" type="bool" value="false"/>
   </properties>
  </object>
 </objectgroup>
</map>
