<?xml version="1.0" encoding="UTF-8"?>
<map version="1.10" tiledversion="1.11.2" orientation="orthogonal" renderorder="right-down" width="18" height="7" tilewidth="32" tileheight="32" infinite="0" nextlayerid="6" nextobjectid="43">
 <tileset firstgid="1" source="Landscape.tsx"/>
 <tileset firstgid="225" source="Cereals.tsx"/>
 <objectgroup id="4" name="soldierInfo">
  <object id="9" name="soldier" x="287.862" y="163.235" width="17.6104" height="27.7703">
   <properties>
    <property name="textInital" value="&quot;Welcome to AuraFarm! You have been kidnapped. In order to escape complete tasks, eat food, drink water, maintain your health. And remember, beware of what lies ahead on this journey... "/>
   </properties>
  </object>
 </objectgroup>
 <objectgroup id="3" name="nextMap">
  <object id="4" name="door" type="door" x="537.117" y="163.912" width="25.061" height="27.7703"/>
 </objectgroup>
 <layer id="1" name="Tile Layer 1" width="18" height="7">
  <data encoding="csv">
127,128,129,130,131,132,133,134,135,136,137,138,139,140,135,134,127,128,
141,142,143,144,145,146,147,148,149,150,151,152,153,154,149,148,141,142,
155,156,157,158,159,160,161,162,163,164,165,166,167,168,163,162,155,156,
169,170,171,172,173,174,175,176,177,178,179,180,181,182,177,176,169,170,
183,184,185,186,187,188,189,190,191,192,196,190,196,196,191,190,193,194,
197,198,199,200,101,101,203,204,205,206,210,204,210,210,197,198,207,208,
211,212,213,214,215,216,217,218,219,220,221,222,223,224,219,218,211,212
</data>
 </layer>
 <objectgroup id="5" name="foods">
  <object id="35" type="Food" gid="225" x="1.94616" y="193.468" width="32" height="32"/>
  <object id="36" type="Food" gid="225" x="544.984" y="128.33" width="32" height="32"/>
  <object id="37" type="Food" gid="225" x="128.234" y="95.096" width="32" height="32"/>
  <object id="38" type="Poison" gid="238" x="511.228" y="132.419" width="32" height="32"/>
  <object id="39" type="Poison" gid="238" x="239.958" y="191.542" width="32" height="32"/>
  <object id="41" type="Poison" gid="238" x="414.424" y="197.667" width="32" height="32"/>
 </objectgroup>
</map>
